src/pos-icons/folder-zip.svg

<svg height="24" viewBox="0 0 24 24" width="24" xmlns="http://www.w3.org/2000/svg"><path d="m20 6h-8l-2-2h-6c-1.1 0-2 .9-2 2v12c0 1.1.9 2 2 2h16c1.1 0 2-.9 2-2v-10c0-1.1-.9-2-2-2m-2 6h-2v2h2v2h-2v2h-2v-2h2v-2h-2v-2h2v-2h-2v-2h2v2h2z"/></svg>

<?xml version="1.0" encoding="UTF-8"?><!DOCTYPE svg PUBLIC "-//W3C//DTD SVG 1.1//EN" "http://www.w3.org/Graphics/SVG/1.1/DTD/svg11.dtd"><svg xmlns="http://www.w3.org/2000/svg" xmlns:xlink="http://www.w3.org/1999/xlink" version="1.1" id="mdi-folder-zip" width="24" height="24" viewBox="0 0 24 24"><path d="M20 6H12L10 4H4C2.9 4 2 4.9 2 6V18C2 19.1 2.9 20 4 20H20C21.1 20 22 19.1 22 18V8C22 6.9 21.1 6 20 6M18 12H16V14H18V16H16V18H14V16H16V14H14V12H16V10H14V8H16V10H18V12Z" /></svg>
